!!!OTL: Corona aurea
**kern
*staff1
=--
*clefG2
*k[b-]
1.cc
2cc
1cc
=-
1.ff
2ee
2dd
2cc
=-
2b-
2a
1g
1f
=-
1cc
2dd
2ee
1ff
1ee
=-
1ff
1.ff
2ff
=-
1dd
0cc
=-
!!linebreak:original
1cc
1dd
1b-
=-
1.cc
2b-
1a
=-
!LO:TX:Y=-39:t=P
1g
1cc
2dd
2ee
=-
2ff
2ee
1dd
1cc
=-
1cc
2dd
2ee
1.ff
4ee
4dd
0ee
=-
!!linebreak:original
1cc
2dd
2ee
2ff
2ee
=-
!LO:TX:Y=-42:t=P
2dd
2cc
1b-
1a
=-
1ff
2ee
2cc
1dd
=-
!LO:TX:Y=-39:t=P
1cc
1b-
1cc
=-
1dd
1ee
1ff
=-
!LO:TX:Y=-201:t=P
1cc
1dd
1ee
=-
!LO:TX:Y=-44:t=P
1ff
1.ff
2ee
=-
1.dd
4cc
4b-
0cc
=-
!!linebreak:original
1.cc
2cc
1cc
=-
!LO:TX:Y=-40:t=P
1ff
2ff
2ee
2dd
2cc
=-
2b-
2a
1g
1a
=-
!LO:TX:Y=-40:t=P
!LO:TX:Y=-40:t=P
1cc
1dd
1ee
=-
!LO:TX:Y=-40:t=P
1ff
1ff
2dd
2dd
=-
!LO:TX:Y=119:t=P
2ee
2ff
1ee
1ff
=-
!!linebreak:original
1ff
2ff
2ee
1dd
=-
!LO:TX:Y=-41:t=P
1ee
1.dd
2ee
=-
0ff
1ee
=-
!LO:TX:Y=-40:t=P
1cc
1dd
1b-
=-
!LO:TX:Y=-37:t=P
1cc
1a
2f
2a
=-
!LO:TX:Y=-37:t=P
1g
1cc
1.dd
2ee
0ff
=-
!!pagebreak:original
1.ff
2ee
2dd
2dd
=-
1cc
1.ff
2ee
=-
2dd
2dd
1cc
1.ff
2cc
2dd
2dd
1cc
=-
1dd
1ff
2ff
4ee
4dd
=-
1ee
0ff
=-
!!linebreak:original
1.cc
2cc
1cc
=-
!LO:TX:Y=-36:t=P
1.ff
2ff
2dd
2ff
=-
1dd
1ff
1ff
=-
2ff
2ee
1dd
1ff
=-
1cc
1ff
2ff
2ee
=-
2dd
2ff
1ee
1ff
!!linebreak:original
=-
1dd
1dd
2cc
2cc
=-
!LO:TX:Y=-197:t=P
!LO:TX:Y=-40:t=P
1cc
1cc
1ff
=-
1dd
2cc
2ff
2ee
2ff
=-
!LO:TX:Y=-42:t=P
1ee
1ff
=-
1.dd
2dd
1dd
=-
!LO:TX:Y=-200:t=P
!LO:TX:Y=-44:t=P
1.cc
2cc
1cc
=-
1.dd
2dd
2cc
2ff
=-
!!linebreak:original
2ee
2ff
1ee
1ff
1ee
=-
1.ff
2ee
2dd
2cc
=-
2b-
2a
1g
1a
=-
!LO:TX:Y=-37:t=P
1.a
2b-
2cc
2ff
=-
1ee
0ff
=-
!!linebreak:original
1.cc
2cc
1cc
=-
1ff
2ff
2ee
2dd
2cc
=-
2b-
2a
1g
1f
=-
!LO:TX:Y=-37:t=P
1a
2b-
2cc
0dd
=-
!LO:TX:Y=-40:t=P
1cc
1ff
2ff
2ee
=-
2dd
2dd
1cc
1ff
!!linebreak:original
=-
2ff
2ee
2dd
2dd
1cc
=-
!LO:TX:Y=-202:t=P
!LO:TX:Y=-39:t=P
1cc
2dd
2dd
1ee
=-
!LO:TX:Y=-43:t=P
1.ff
2ff
1ee
=-
1.ff
2ee
1dd
=-
!LO:TX:Y=-44:t=P
1cc
1dd
1ff
=-
2ff
4ee
4dd
1ee
0ff
=-
!!pagebreak:original
1cc
1.dd
2ff
=-
2dd
2ee
1ff
1dd
=-
1cc
1dd
1dd
=-
1cc
2.dd
4dd
1dd
=-
1.ff
2dd
2cc
2ff
=-
1ee
1ff
1cc
=-
1.dd
2cc
2dd
1.ff
4ee
4dd
2ee
0ff
=-=
*-
!!title: @{OTL}, @{GTL}, ed. @{ENC}
!!!pag:
!!!GTL: Hymnbook C
!!!EFL: 
!!!YEM: Creative Commons CC/BY/NC/SA 4.0
!!!ENC: Marcin Konik
!!!END: 2015-0m-dd
!!!EED: Marcin Konik
!!!EEV: 
!!!ONB: Encoded in vim by Marcin Konik
!!!CharacterEncoding: utf-8
!!!RDF**kern: l=long note in original notation
!!!RDF**kern: i=editorial accidental
!!muse2ps: z14jc180F
!!!COM: Anonim
!!!CDT: [?]
!!!TXO: Polish
!!!ODT: 
!!!GTL: Hymnbook C
!!!ARL: Opactwo św. Wojciecha, Staniątki 
!!!voices:	1
